!!!OTL-incipit: ACH WIE IST ES MOEGLICH DANN, DASS ICH DICH VERLASSEN KANN
!!!ARE: Europa, Mitteleuropa, Deutschland
!!!SCT: Z0252
!!!TXL: @@DE
!!!YEM: Copyright 1995, estate of Helmut Schaffrath.
**kern	**text
*ICvox	*
*M3/8	*
*k[f#]	*
*G:	*
=1	=1
!LO:TX:a:t=Deutſch.	!
{8.dd	Ach
16ee	wie
16dd	iſt
16cc	es
=2	=2
16ccqq	.
8.b	mög-
16b	-lich
8b}	dann,
=3	=3
{8.b	daß
16cc	ich
16b	dich
16a	ver-
=4	=4
16aqq	.
8.g	-laſ-
16g	-ſen
8g}	kann,
=5	=5
{8a	hab'
8a	dich
8a	von
=6	=6
8.b	Her-
16cc	-ʒen
8dd}	lieb,
=7	=7
{8dd	das
16eeL	glau-
16ddJ	.
16ccL	-be
16bJ	.
=8	=8
8bL	mir;
8aJ	.
8r}	.
=9	=9
{8dd	du
8dd	haſt
8dd	das
=10	=10
8.ee	Her-
16ff#	-ʒe
8gg}	mein
=11	=11
{8dd	ſo
16ddL	ganʒ
16eeJ	.
16ddL	ge-
16ccJ	.
=12	=12
16bL	-nom-
16aJ	.
16bL	-men
16ccJ	.
8b}	ein,
=13	=13
{8g	daß
8b	ich
8dd	kein'
=14	=14
16eeL	an-
16ccJ	.
16aL	-dre
16ccJ	.
8b}	lieb,
=15	=15
{8g	daß
8b	ich
8dd	kein'
=16	=16
16eeL	an-
16ccJ	.
16aL	-dre
16ccJ	.
8b}	lieb,
=17	=17
{8dd	als
16eeL	dich
16ccJ	.
16aL	al-
16ccJ	.
=18	=18
8ccL	-lein.
8bJ	.
8r}	.
==	==
!!!AGN: lyrisches Lied, Romanze, Liebe
!!!ONB: ESAC (Essen Associative Code) Database: ZUCCAL
!!!AMT: simple triple
!!!AIN: vox
!!!EED: Helmut Schaffrath
!!!EEV: 1.0
!!!GTL: IV. Lyrische Lieder.
!!!URL-scan: https://www.digitale-sammlungen.de/de/view/bsb11160571?page=466
!!!ENC: Anna Maria Matuszewska
!!!EEV: 2025/01/30
*-	*-
